X:1
T:Title
L:1/8
Q:1/4=120
M:4/4
K:Eb
V:1 treble nm="Grand Piano"
V:1
 G2 G2 G2 A2 | A2 G2 G4 | F F2 F E2 D2 | E2 C2 C4 | G2 G2 G2 A2 | A2 G2 G4 | F2 F2 E2 D2 | C8 | %8
w: ????~????~???? * * *||||||||
 c2 c2 B2 A2 | c2 G2 G4 | B2 B2 A2 G2 | F8 | F2 A2 G2 F2 | E2 F2 G4 | G2 G2 =B2 d2 | c8 | %16
w: ||||||||
 G c2 c BA G2 | F B2 B A4 | FGGA c2 =B2 | G8 | G B2 B AG F2 | E A2 A G4 | G G2 G =B2 d2 | c8 | %24
w: ||||||||
 G2 G2 G2 A2 | A2 G2 G4 | F F2 F E2 D2 | E2 C2 C4 | G2 G2 G2 A2 | A2 G2 G4 | F2 F2 E2 D2 | C8 | %32
w: ||||||||
 c2 c2 B2 A2 | c2 G2 G4 | B2 B2 A2 G2 | F8 | F2 A2 G2 F2 | E2 F2 G4 | G2 G2 =B2 d2 | %39
w: |||||||
[M:8/4] c8 z8 |] %40
w: |

